X: 100316
T: ROSEBUD VALSE
R: waltz
B: K\"ohler's Violin Repository, v.3, 1885 p.322 #3
F: http://www.archive.org/details/klersviolinrepos03rugg
Z: 2012 John Chambers <jc:trillian.mit.edu>
M: 3/4
L: 1/4
K: G
|:\
"^8va"\
vB3  |  B3   | dc^G | A3  |\
 A3  |  A3   | cBF  | G3  |\
 B3  |  B3   | dc^G | A3  |\
edc  | (Bc)A | G3-  | Gzz :|
"8va"\
 FAd  |  fdF  | AGF | E3  |\
(E2F) | (G2B) | BAG | F3  |\
 FAd  |  fdF  |vAGF | E2B |\
 BAG  | (GF)E | D3- | Dzz |]

%%sep 2 1 500

